src/assets/img/css.svg

<svg width="54" height="60" viewBox="0 0 54 60" fill="none" xmlns="http://www.w3.org/2000/svg">
<path d="M0.511539 0.0105726C0.511539 0.243169 0.500957 0.401758 0.511539 0.560346C0.913636 4.95854 1.31573 9.35673 1.70725 13.7655C2.25749 20.0033 2.79714 26.2411 3.34738 32.4684C3.97169 39.4674 4.60658 46.4559 5.20973 53.4549C5.25205 53.9624 5.43194 54.1844 5.90811 54.3113C12.6803 56.1721 19.4313 58.0434 26.2034 59.8936C26.6584 60.0205 27.2087 60.0416 27.6637 59.9148C34.457 58.054 41.2397 56.1615 48.0331 54.2902C48.5516 54.1421 48.7315 53.9095 48.7738 53.3809C48.9854 50.7378 49.2394 48.0841 49.4722 45.4409C49.8637 41.0639 50.2446 36.6868 50.6361 32.3098C51.0911 27.1715 51.5567 22.0438 52.0117 16.9055C52.3503 13.0783 52.7101 9.26157 53.0487 5.4343C53.2074 3.63696 53.345 1.83963 53.4931 0H0.511539V0.0105726ZM43.2714 15.2774C42.9222 19.1469 42.573 23.0271 42.2238 26.8966C41.8217 31.3477 41.4196 35.7987 41.0175 40.2392C40.9011 41.5185 40.7318 42.7978 40.7001 44.0876C40.6789 44.7748 40.3826 44.9546 39.8112 45.1132C35.7268 46.2127 31.6529 47.344 27.579 48.4647C27.3991 48.5175 27.2298 48.581 27.05 48.6338C26.9865 48.6021 26.923 48.581 26.8489 48.5492C22.4893 47.3651 18.1297 46.1704 13.7702 44.9651C13.5903 44.9123 13.3575 44.6268 13.3363 44.4259C13.0295 41.1273 12.7543 37.8287 12.4581 34.4666H19.1138C19.2302 35.7882 19.3572 37.1309 19.463 38.4842C19.5582 39.7317 19.5477 39.7317 20.7222 40.0489C22.8279 40.6092 24.9442 41.159 27.05 41.7088L27.0288 41.6559C29.3356 41.0427 31.6423 40.4401 33.9491 39.7846C34.1607 39.7212 34.4041 39.3828 34.4358 39.1502C34.5734 38.1353 34.6475 37.1097 34.7321 36.0948C34.8697 34.456 35.0072 32.8173 35.1554 31.1045H27.0288L27.05 31.0622C26.997 31.0622 26.9336 31.0622 26.8806 31.0622H12.1512C11.9501 28.8737 11.7597 26.7063 11.5586 24.4755H26.8912C26.9441 24.4755 27.0076 24.4755 27.0605 24.4755L27.0394 24.4332H35.7479C35.949 22.1601 36.15 19.9399 36.3511 17.6773H27.0288L27.05 17.635C26.997 17.635 26.9336 17.635 26.8806 17.635C21.664 17.6456 16.4473 17.6456 11.2306 17.6562C11.1565 17.6562 11.0825 17.6245 10.9449 17.5822C10.7544 15.4254 10.5534 13.2686 10.3629 11.0483H26.8806C26.9336 11.0483 26.997 11.0483 27.05 11.0483L27.0288 11.006H43.6206C43.5042 12.4862 43.3878 13.8818 43.2714 15.2774Z" fill="#930f50"/>
</svg>

<svg width="54" height="60" fill="none" xmlns="http://www.w3.org/2000/svg"><path d="M.512.01c0 .233-.011.392 0 .55.402 4.399.804 8.797 1.195 13.206.55 6.237 1.09 12.475 1.64 18.702.625 7 1.26 13.988 1.863 20.987.042.507.222.73.698.856 6.772 1.861 13.523 3.732 20.295 5.583.455.127 1.006.148 1.46.02 6.794-1.86 13.577-3.753 20.37-5.624.519-.148.698-.38.74-.91.212-2.642.466-5.296.7-7.94.39-4.376.772-8.753 1.163-13.13.455-5.139.92-10.266 1.376-15.405.338-3.827.698-7.643 1.037-11.47.158-1.798.296-3.595.444-5.435H.512v.01Zm42.76 15.267-1.048 11.62-1.206 13.342c-.117 1.28-.286 2.559-.318 3.849-.021.687-.317.867-.889 1.025-4.084 1.1-8.158 2.231-12.232 3.352-.18.052-.35.116-.529.169-.064-.032-.127-.053-.201-.085-4.36-1.184-8.72-2.379-13.079-3.584-.18-.053-.412-.338-.434-.54-.306-3.298-.582-6.596-.878-9.958h6.656c.116 1.321.243 2.664.349 4.017.095 1.248.085 1.248 1.26 1.565 2.105.56 4.221 1.11 6.327 1.66l-.021-.053c2.307-.613 4.613-1.216 6.92-1.871.212-.064.455-.402.487-.635.137-1.015.212-2.04.296-3.055.138-1.639.275-3.278.423-4.99H27.03l.021-.043H12.151c-.2-2.188-.391-4.356-.592-6.587H27.06l-.022-.042h8.709c.201-2.273.402-4.493.603-6.756H27.03l.021-.042h-.17c-5.216.01-10.433.01-15.65.021-.074 0-.148-.031-.285-.074-.19-2.157-.392-4.313-.582-6.534H27.05l-.021-.042H43.62c-.117 1.48-.233 2.876-.35 4.271Z" fill="#930f50"/></svg>
